X: 23879
T: Llodrau Tynn
R: slip jig
M: 9/8
K: Dmixolydian
|:ABA A2 G F2 G|A2 A A2 d cAG|ABA A2 G F2 G|Agf g>ed cAG:|
|:Add d2 e f3|A2 d dcA cAG|Add d2 e f2 g|a2 f ged cAG:|

